usr/share/icons/biglinux-icons-material/scalable/mimetypes/application-x-yaml.svg

<svg width="24" height="24" viewBox="0 0 24 24" fill="none" xmlns="http://www.w3.org/2000/svg">
<rect x="1" y="1" width="22" height="22" rx="6.6" fill="url(#paint0_radial_21_508)"/>
<path d="M15.836 19.9197L14.9653 19.9235V17.6077C14.557 17.9991 13.6391 18.7775 13.6391 18.7775L12.3331 17.6077V19.9197L11.4574 19.9149V16.4168C11.4574 16.4168 12.0624 16.4206 12.2947 16.4242C12.3233 16.4242 12.3548 16.4548 12.3782 16.478C12.7269 16.8239 13.6421 17.5956 13.6421 17.5956C13.6421 17.5956 14.6181 16.7739 14.8998 16.4891C14.941 16.4425 15.0014 16.4173 15.0636 16.4208C15.2416 16.4241 15.6502 16.4167 15.836 16.4167L15.836 19.9197Z" fill="#F09020"/>
<path d="M8.73603 17.413C8.73603 17.413 9.36449 16.789 9.68048 16.4786C9.70874 16.4508 9.75056 16.42 9.78606 16.4193C10.0561 16.4161 10.5816 16.4167 10.5816 16.4167V19.9196H9.70576V17.6424C9.70576 17.6424 8.22009 19.1289 7.51054 19.8392C7.46122 19.8934 7.3903 19.9228 7.31711 19.9194C6.98633 19.9149 6.22737 19.9184 6.22737 19.9184L8.73603 17.413Z" fill="#F09020"/>
<path d="M5.82315 18.2373L4 16.4172C4 16.4172 4.71153 16.4172 4.9502 16.418C5.01544 16.414 5.07898 16.4397 5.1231 16.488C5.50016 16.8702 5.88004 17.2482 6.2599 17.6268C6.28673 17.6537 6.3152 17.6786 6.34646 17.7078C6.74967 17.3067 7.14983 16.9114 7.54577 16.512C7.61063 16.4464 7.67433 16.4154 7.76814 16.4173C7.95167 16.4172 8.68907 16.4172 8.68907 16.4172C8.68907 16.4172 7.35392 17.753 6.78831 18.3169C6.27917 18.8239 5.7677 19.3288 5.25995 19.8375C5.20803 19.8941 5.13338 19.9243 5.05672 19.9197C4.79899 19.9202 4.15254 19.9202 4.15254 19.9202L5.82315 18.2373Z" fill="#F09020"/>
<path d="M16.7117 16.4168H17.5874V19.263C17.5874 19.263 18.7313 19.2641 19.2575 19.2613C19.3234 19.2571 19.3876 19.2829 19.4322 19.3316C19.5976 19.5028 19.7653 19.6762 19.9335 19.8446C19.9546 19.8656 19.9731 19.8891 20 19.9197L16.7117 19.9197L16.7117 16.4168Z" fill="#F09020"/>
<path d="M11.7685 8.56506C15.0821 8.56506 17.7684 7.53188 17.7684 6.25739C17.7684 4.9829 15.0821 3.94972 11.7685 3.94972C8.45479 3.94972 5.76852 4.9829 5.76852 6.25739C5.76852 7.53188 8.45479 8.56506 11.7685 8.56506Z" stroke="#999999" stroke-width="0.923068" stroke-linejoin="round"/>
<path d="M5.76827 6.25854V11.797" stroke="#999999" stroke-width="0.923068"/>
<path d="M17.7683 8.10353C17.7682 8.5086 17.491 8.90653 16.9644 9.25733C16.4378 9.60813 15.6804 9.89943 14.7683 10.102C13.8562 10.3045 12.8215 10.4111 11.7683 10.4111C10.7151 10.4111 9.68046 10.3045 8.76836 10.102C7.85627 9.89943 7.09887 9.60813 6.57226 9.25733C6.04566 8.90653 5.76841 8.5086 5.76838 8.10353" stroke="#999999" stroke-width="0.923068" stroke-linejoin="round"/>
<path d="M17.7683 9.94966C17.7683 10.3548 17.4911 10.7527 16.9645 11.1035C16.4379 11.4544 15.6804 11.7457 14.7683 11.9482C13.8562 12.1508 12.8215 12.2574 11.7683 12.2574C10.7151 12.2574 9.68046 12.1508 8.76836 11.9482C7.85623 11.7457 7.09879 11.4544 6.57219 11.1035C6.04558 10.7527 5.76836 10.3548 5.76838 9.94966" stroke="#999999" stroke-width="0.923068" stroke-linejoin="round"/>
<path d="M17.7683 11.7958C17.7683 12.2009 17.4911 12.5988 16.9645 12.9497C16.4379 13.3005 15.6804 13.5918 14.7683 13.7944C13.8562 13.9969 12.8215 14.1035 11.7683 14.1035C10.7151 14.1035 9.68046 13.9969 8.76836 13.7944C7.85623 13.5918 7.09879 13.3005 6.57219 12.9497C6.04558 12.5988 5.76836 12.2009 5.76838 11.7958" stroke="#999999" stroke-width="0.923068" stroke-linejoin="round"/>
<path d="M17.7683 6.25854V11.797" stroke="#999999" stroke-width="0.923068"/>
<defs>
<radialGradient id="paint0_radial_21_508" cx="0" cy="0" r="1" gradientUnits="userSpaceOnUse" gradientTransform="translate(17.5 1) rotate(116.565) scale(24.5967)">
<stop stop-color="#F4F4F4"/>
<stop offset="1" stop-color="#BBBBBB"/>
</radialGradient>
</defs>
</svg>

<svg xmlns="http://www.w3.org/2000/svg" width="24" height="24" fill="none"><rect width="22" height="22" x="1" y="1" fill="url(#a)" rx="6.6"/><path fill="#F09020" d="m15.836 19.92-.87.003v-2.315a41.928 41.928 0 0 1-1.327 1.17l-1.306-1.17v2.312l-.876-.005v-3.498s.605.004.838.007c.028 0 .06.03.083.054.349.346 1.264 1.118 1.264 1.118s.976-.822 1.258-1.107a.203.203 0 0 1 .164-.068c.178.003.586-.004.772-.004v3.503ZM8.736 17.413s.628-.624.944-.934c.029-.028.07-.059.106-.06.27-.003.796-.002.796-.002v3.503h-.876v-2.278L7.51 19.84a.246.246 0 0 1-.194.08c-.33-.004-1.09 0-1.09 0l2.509-2.506ZM5.823 18.237 4 16.417l.95.001a.216.216 0 0 1 .173.07c.377.382.757.76 1.137 1.139.027.027.055.052.086.08.404-.4.804-.796 1.2-1.195a.279.279 0 0 1 .222-.095h.921l-1.9 1.9c-.51.507-1.021 1.012-1.529 1.52a.255.255 0 0 1-.203.083h-.904l1.67-1.683ZM16.712 16.417h.875v2.846s1.144.001 1.67-.002a.218.218 0 0 1 .175.07c.166.172.333.345.502.514.02.02.04.044.066.075h-3.288v-3.503Z"/><path stroke="#999" stroke-linejoin="round" stroke-width=".923" d="M11.768 8.565c3.314 0 6-1.033 6-2.308 0-1.274-2.686-2.307-6-2.307-3.313 0-6 1.033-6 2.307 0 1.275 2.687 2.308 6 2.308Z"/><path stroke="#999" stroke-width=".923" d="M5.768 6.259v5.538"/><path stroke="#999" stroke-linejoin="round" stroke-width=".923" d="M17.768 8.104c0 .405-.277.803-.804 1.153-.526.351-1.284.642-2.196.845-.912.203-1.947.31-3 .31a14.07 14.07 0 0 1-3-.31c-.912-.203-1.67-.494-2.196-.845-.526-.35-.804-.748-.804-1.153"/><path stroke="#999" stroke-linejoin="round" stroke-width=".923" d="M17.768 9.95c0 .405-.277.803-.803 1.154-.527.35-1.285.642-2.197.844-.912.203-1.947.31-3 .31s-2.088-.107-3-.31c-.912-.202-1.67-.494-2.196-.845-.526-.35-.804-.748-.804-1.153"/><path stroke="#999" stroke-linejoin="round" stroke-width=".923" d="M17.768 11.796c0 .405-.277.803-.803 1.154-.527.35-1.285.642-2.197.844-.912.203-1.947.31-3 .31a14.07 14.07 0 0 1-3-.31c-.912-.202-1.67-.494-2.196-.844-.526-.351-.804-.75-.804-1.154"/><path stroke="#999" stroke-width=".923" d="M17.768 6.259v5.538"/><defs><radialGradient id="a" cx="0" cy="0" r="1" gradientTransform="rotate(116.565 8.441 5.908) scale(24.5967)" gradientUnits="userSpaceOnUse"><stop stop-color="#F4F4F4"/><stop offset="1" stop-color="#BBB"/></radialGradient></defs></svg>
